icons/modern/test-tube.svg

<svg width="32" height="32" viewBox="0 0 32 32" fill="none" xmlns="http://www.w3.org/2000/svg">
<g filter="url(#filter0_i_18_24902)">
<path d="M21.066 4.42993L28.058 11.4219L11.1321 28.3478C9.20131 30.2786 6.07089 30.2786 4.1401 28.3478C2.20932 26.417 2.20932 23.2866 4.1401 21.3558L21.066 4.42993Z" fill="#A5D9FF"/>
</g>
<g filter="url(#filter1_f_18_24902)">
<rect x="23.3696" y="7.52393" width="2.33703" height="11.3458" transform="rotate(45 23.3696 7.52393)" fill="#C6EFFF"/>
</g>
<g filter="url(#filter2_iii_18_24902)">
<path d="M26.1119 13.3679L11.132 28.3478C9.20126 30.2786 6.07089 30.2786 4.14011 28.3478C2.20932 26.417 2.20932 23.2866 4.14011 21.3558L12.128 13.3679H26.1119Z" fill="#D1F884"/>
<path d="M26.1119 13.3679L11.132 28.3478C9.20126 30.2786 6.07089 30.2786 4.14011 28.3478C2.20932 26.417 2.20932 23.2866 4.14011 21.3558L12.128 13.3679H26.1119Z" fill="url(#paint0_linear_18_24902)"/>
</g>
<path d="M14.7614 10.7346L13.5992 11.8967L15.6918 13.9893C16.0127 14.3102 16.533 14.3102 16.8539 13.9893C17.1748 13.6684 17.1748 13.1481 16.8539 12.8272L14.7614 10.7346Z" fill="url(#paint1_linear_18_24902)"/>
<path d="M9.09741 16.3984L10.2595 15.2363L12.3442 17.3211C12.6652 17.642 12.6652 18.1623 12.3442 18.4832C12.0233 18.8041 11.5031 18.8041 11.1821 18.4832L9.09741 16.3984Z" fill="url(#paint2_linear_18_24902)"/>
<path d="M4.58862 20.9072L5.75073 19.7451L7.83459 21.8289C8.15552 22.1499 8.15552 22.6702 7.83459 22.9911C7.51367 23.312 6.99341 23.312 6.67249 22.9911L4.58862 20.9072Z" fill="url(#paint3_linear_18_24902)"/>
<g filter="url(#filter3_i_18_24902)">
<path d="M19.5504 2.61741C18.9765 3.19126 18.9765 4.12167 19.5504 4.69553L27.7923 12.9375C28.3662 13.5113 29.2966 13.5113 29.8704 12.9375C30.4443 12.3636 30.4443 11.4332 29.8704 10.8593L21.6285 2.61741C21.0547 2.04355 20.1242 2.04355 19.5504 2.61741Z" fill="#A9D8FF"/>
<path d="M19.5504 2.61741C18.9765 3.19126 18.9765 4.12167 19.5504 4.69553L27.7923 12.9375C28.3662 13.5113 29.2966 13.5113 29.8704 12.9375C30.4443 12.3636 30.4443 11.4332 29.8704 10.8593L21.6285 2.61741C21.0547 2.04355 20.1242 2.04355 19.5504 2.61741Z" fill="url(#paint4_linear_18_24902)"/>
</g>
<g filter="url(#filter4_f_18_24902)">
<rect x="19.9158" y="4.00146" width="1.57119" height="11.844" transform="rotate(-45 19.9158 4.00146)" fill="#C4ECFF"/>
</g>
<defs>
<filter id="filter0_i_18_24902" x="2.69202" y="4.42993" width="25.366" height="25.366" filterUnits="userSpaceOnUse" color-interpolation-filters="sRGB">
<feFlood flood-opacity="0" result="BackgroundImageFix"/>
<feBlend mode="normal" in="SourceGraphic" in2="BackgroundImageFix" result="shape"/>
<feColorMatrix in="SourceAlpha" type="matrix" values="0 0 0 0 0 0 0 0 0 0 0 0 0 0 0 0 0 0 127 0" result="hardAlpha"/>
<feOffset/>
<feGaussianBlur stdDeviation="1"/>
<feComposite in2="hardAlpha" operator="arithmetic" k2="-1" k3="1"/>
<feColorMatrix type="matrix" values="0 0 0 0 0.745098 0 0 0 0 0.85098 0 0 0 0 0.964706 0 0 0 1 0"/>
<feBlend mode="normal" in2="shape" result="effect1_innerShadow_18_24902"/>
</filter>
<filter id="filter1_f_18_24902" x="13.3469" y="5.52393" width="13.6752" height="13.6753" filterUnits="userSpaceOnUse" color-interpolation-filters="sRGB">
<feFlood flood-opacity="0" result="BackgroundImageFix"/>
<feBlend mode="normal" in="SourceGraphic" in2="BackgroundImageFix" result="shape"/>
<feGaussianBlur stdDeviation="1" result="effect1_foregroundBlur_18_24902"/>
</filter>
<filter id="filter2_iii_18_24902" x="2.69202" y="12.6179" width="26.4199" height="17.178" filterUnits="userSpaceOnUse" color-interpolation-filters="sRGB">
<feFlood flood-opacity="0" result="BackgroundImageFix"/>
<feBlend mode="normal" in="SourceGraphic" in2="BackgroundImageFix" result="shape"/>
<feColorMatrix in="SourceAlpha" type="matrix" values="0 0 0 0 0 0 0 0 0 0 0 0 0 0 0 0 0 0 127 0" result="hardAlpha"/>
<feOffset dx="4" dy="-0.75"/>
<feGaussianBlur stdDeviation="1.5"/>
<feComposite in2="hardAlpha" operator="arithmetic" k2="-1" k3="1"/>
<feColorMatrix type="matrix" values="0 0 0 0 0.505882 0 0 0 0 0.811765 0 0 0 0 0.34902 0 0 0 1 0"/>
<feBlend mode="normal" in2="shape" result="effect1_innerShadow_18_24902"/>
<feColorMatrix in="SourceAlpha" type="matrix" values="0 0 0 0 0 0 0 0 0 0 0 0 0 0 0 0 0 0 127 0" result="hardAlpha"/>
<feOffset dy="-0.4"/>
<feGaussianBlur stdDeviation="0.5"/>
<feComposite in2="hardAlpha" operator="arithmetic" k2="-1" k3="1"/>
<feColorMatrix type="matrix" values="0 0 0 0 0.788235 0 0 0 0 0.843137 0 0 0 0 0.898039 0 0 0 1 0"/>
<feBlend mode="normal" in2="effect1_innerShadow_18_24902" result="effect2_innerShadow_18_24902"/>
<feColorMatrix in="SourceAlpha" type="matrix" values="0 0 0 0 0 0 0 0 0 0 0 0 0 0 0 0 0 0 127 0" result="hardAlpha"/>
<feOffset dx="0.4" dy="-0.4"/>
<feGaussianBlur stdDeviation="0.5"/>
<feComposite in2="hardAlpha" operator="arithmetic" k2="-1" k3="1"/>
<feColorMatrix type="matrix" values="0 0 0 0 0.67451 0 0 0 0 0.839216 0 0 0 0 0.623529 0 0 0 1 0"/>
<feBlend mode="normal" in2="effect2_innerShadow_18_24902" result="effect3_innerShadow_18_24902"/>
</filter>
<filter id="filter3_i_18_24902" x="19.12" y="2.18701" width="11.1808" height="11.1809" filterUnits="userSpaceOnUse" color-interpolation-filters="sRGB">
<feFlood flood-opacity="0" result="BackgroundImageFix"/>
<feBlend mode="normal" in="SourceGraphic" in2="BackgroundImageFix" result="shape"/>
<feColorMatrix in="SourceAlpha" type="matrix" values="0 0 0 0 0 0 0 0 0 0 0 0 0 0 0 0 0 0 127 0" result="hardAlpha"/>
<feOffset/>
<feGaussianBlur stdDeviation="0.5"/>
<feComposite in2="hardAlpha" operator="arithmetic" k2="-1" k3="1"/>
<feColorMatrix type="matrix" values="0 0 0 0 0.658824 0 0 0 0 0.776471 0 0 0 0 0.937255 0 0 0 1 0"/>
<feBlend mode="normal" in2="shape" result="effect1_innerShadow_18_24902"/>
</filter>
<filter id="filter4_f_18_24902" x="19.1658" y="2.14038" width="10.986" height="10.9861" filterUnits="userSpaceOnUse" color-interpolation-filters="sRGB">
<feFlood flood-opacity="0" result="BackgroundImageFix"/>
<feBlend mode="normal" in="SourceGraphic" in2="BackgroundImageFix" result="shape"/>
<feGaussianBlur stdDeviation="0.375" result="effect1_foregroundBlur_18_24902"/>
</filter>
<linearGradient id="paint0_linear_18_24902" x1="25.7611" y1="13.875" x2="17.0736" y2="16.875" gradientUnits="userSpaceOnUse">
<stop offset="0.203491" stop-color="#E9EB7E"/>
<stop offset="1" stop-color="#E9EB7E" stop-opacity="0"/>
</linearGradient>
<linearGradient id="paint1_linear_18_24902" x1="16.7611" y1="14.0625" x2="14.0111" y2="11.4688" gradientUnits="userSpaceOnUse">
<stop stop-color="#138979"/>
<stop offset="1" stop-color="#2E7B65"/>
</linearGradient>
<linearGradient id="paint2_linear_18_24902" x1="12.2522" y1="18.5568" x2="9.50836" y2="15.9688" gradientUnits="userSpaceOnUse">
<stop stop-color="#138979"/>
<stop offset="1" stop-color="#2E7B65"/>
</linearGradient>
<linearGradient id="paint3_linear_18_24902" x1="7.74265" y1="23.0647" x2="4.9995" y2="20.4774" gradientUnits="userSpaceOnUse">
<stop stop-color="#138979"/>
<stop offset="1" stop-color="#2E7B65"/>
</linearGradient>
<linearGradient id="paint4_linear_18_24902" x1="28.7857" y1="13.5211" x2="28.6559" y2="11.86" gradientUnits="userSpaceOnUse">
<stop stop-color="#A8C3FF"/>
<stop offset="1" stop-color="#A8C3FF" stop-opacity="0"/>
</linearGradient>
</defs>
</svg>

<svg width="32" height="32" fill="none" xmlns="http://www.w3.org/2000/svg"><g filter="url(#a)"><path d="m21.066 4.43 6.992 6.992-16.926 16.926a4.944 4.944 0 1 1-6.992-6.992L21.066 4.43Z" fill="#A5D9FF"/></g><g filter="url(#b)"><path fill="#C6EFFF" d="m23.37 7.524 1.652 1.653L17 17.2l-1.653-1.653z"/></g><g filter="url(#c)"><path d="m26.112 13.368-14.98 14.98a4.944 4.944 0 1 1-6.992-6.992l7.988-7.988h13.984Z" fill="#D1F884"/><path d="m26.112 13.368-14.98 14.98a4.944 4.944 0 1 1-6.992-6.992l7.988-7.988h13.984Z" fill="url(#d)"/></g><path d="M14.761 10.735 13.6 11.897l2.093 2.092a.822.822 0 0 0 1.162-1.162l-2.093-2.092Z" fill="url(#e)"/><path d="m9.097 16.398 1.162-1.162 2.085 2.085a.822.822 0 1 1-1.162 1.162l-2.085-2.085Z" fill="url(#f)"/><path d="m4.589 20.907 1.162-1.162 2.084 2.084a.822.822 0 0 1-1.163 1.162L4.59 20.907Z" fill="url(#g)"/><g filter="url(#h)"><path d="M19.55 2.617a1.47 1.47 0 0 0 0 2.079l8.242 8.242a1.47 1.47 0 0 0 2.078-2.079l-8.242-8.242a1.47 1.47 0 0 0-2.078 0Z" fill="#A9D8FF"/><path d="M19.55 2.617a1.47 1.47 0 0 0 0 2.079l8.242 8.242a1.47 1.47 0 0 0 2.078-2.079l-8.242-8.242a1.47 1.47 0 0 0-2.078 0Z" fill="url(#i)"/></g><g filter="url(#j)"><path fill="#C4ECFF" d="m19.916 4.001 1.11-1.11 8.375 8.374-1.11 1.111z"/></g><defs><linearGradient id="d" x1="25.761" y1="13.875" x2="17.074" y2="16.875" gradientUnits="userSpaceOnUse"><stop offset=".203" stop-color="#E9EB7E"/><stop offset="1" stop-color="#E9EB7E" stop-opacity="0"/></linearGradient><linearGradient id="e" x1="16.761" y1="14.063" x2="14.011" y2="11.469" gradientUnits="userSpaceOnUse"><stop stop-color="#138979"/><stop offset="1" stop-color="#2E7B65"/></linearGradient><linearGradient id="f" x1="12.252" y1="18.557" x2="9.508" y2="15.969" gradientUnits="userSpaceOnUse"><stop stop-color="#138979"/><stop offset="1" stop-color="#2E7B65"/></linearGradient><linearGradient id="g" x1="7.743" y1="23.065" x2="5" y2="20.477" gradientUnits="userSpaceOnUse"><stop stop-color="#138979"/><stop offset="1" stop-color="#2E7B65"/></linearGradient><linearGradient id="i" x1="28.786" y1="13.521" x2="28.656" y2="11.86" gradientUnits="userSpaceOnUse"><stop stop-color="#A8C3FF"/><stop offset="1" stop-color="#A8C3FF" stop-opacity="0"/></linearGradient><filter id="a" x="2.692" y="4.43" width="25.366" height="25.366" filterUnits="userSpaceOnUse" color-interpolation-filters="sRGB"><feFlood flood-opacity="0" result="BackgroundImageFix"/><feBlend in="SourceGraphic" in2="BackgroundImageFix" result="shape"/><feColorMatrix in="SourceAlpha" values="0 0 0 0 0 0 0 0 0 0 0 0 0 0 0 0 0 0 127 0" result="hardAlpha"/><feOffset/><feGaussianBlur stdDeviation="1"/><feComposite in2="hardAlpha" operator="arithmetic" k2="-1" k3="1"/><feColorMatrix values="0 0 0 0 0.745098 0 0 0 0 0.85098 0 0 0 0 0.964706 0 0 0 1 0"/><feBlend in2="shape" result="effect1_innerShadow_18_24902"/></filter><filter id="b" x="13.347" y="5.524" width="13.675" height="13.675" filterUnits="userSpaceOnUse" color-interpolation-filters="sRGB"><feFlood flood-opacity="0" result="BackgroundImageFix"/><feBlend in="SourceGraphic" in2="BackgroundImageFix" result="shape"/><feGaussianBlur stdDeviation="1" result="effect1_foregroundBlur_18_24902"/></filter><filter id="c" x="2.692" y="12.618" width="26.42" height="17.178" filterUnits="userSpaceOnUse" color-interpolation-filters="sRGB"><feFlood flood-opacity="0" result="BackgroundImageFix"/><feBlend in="SourceGraphic" in2="BackgroundImageFix" result="shape"/><feColorMatrix in="SourceAlpha" values="0 0 0 0 0 0 0 0 0 0 0 0 0 0 0 0 0 0 127 0" result="hardAlpha"/><feOffset dx="4" dy="-.75"/><feGaussianBlur stdDeviation="1.5"/><feComposite in2="hardAlpha" operator="arithmetic" k2="-1" k3="1"/><feColorMatrix values="0 0 0 0 0.505882 0 0 0 0 0.811765 0 0 0 0 0.34902 0 0 0 1 0"/><feBlend in2="shape" result="effect1_innerShadow_18_24902"/><feColorMatrix in="SourceAlpha" values="0 0 0 0 0 0 0 0 0 0 0 0 0 0 0 0 0 0 127 0" result="hardAlpha"/><feOffset dy="-.4"/><feGaussianBlur stdDeviation=".5"/><feComposite in2="hardAlpha" operator="arithmetic" k2="-1" k3="1"/><feColorMatrix values="0 0 0 0 0.788235 0 0 0 0 0.843137 0 0 0 0 0.898039 0 0 0 1 0"/><feBlend in2="effect1_innerShadow_18_24902" result="effect2_innerShadow_18_24902"/><feColorMatrix in="SourceAlpha" values="0 0 0 0 0 0 0 0 0 0 0 0 0 0 0 0 0 0 127 0" result="hardAlpha"/><feOffset dx=".4" dy="-.4"/><feGaussianBlur stdDeviation=".5"/><feComposite in2="hardAlpha" operator="arithmetic" k2="-1" k3="1"/><feColorMatrix values="0 0 0 0 0.67451 0 0 0 0 0.839216 0 0 0 0 0.623529 0 0 0 1 0"/><feBlend in2="effect2_innerShadow_18_24902" result="effect3_innerShadow_18_24902"/></filter><filter id="h" x="19.12" y="2.187" width="11.181" height="11.181" filterUnits="userSpaceOnUse" color-interpolation-filters="sRGB"><feFlood flood-opacity="0" result="BackgroundImageFix"/><feBlend in="SourceGraphic" in2="BackgroundImageFix" result="shape"/><feColorMatrix in="SourceAlpha" values="0 0 0 0 0 0 0 0 0 0 0 0 0 0 0 0 0 0 127 0" result="hardAlpha"/><feOffset/><feGaussianBlur stdDeviation=".5"/><feComposite in2="hardAlpha" operator="arithmetic" k2="-1" k3="1"/><feColorMatrix values="0 0 0 0 0.658824 0 0 0 0 0.776471 0 0 0 0 0.937255 0 0 0 1 0"/><feBlend in2="shape" result="effect1_innerShadow_18_24902"/></filter><filter id="j" x="19.166" y="2.14" width="10.986" height="10.986" filterUnits="userSpaceOnUse" color-interpolation-filters="sRGB"><feFlood flood-opacity="0" result="BackgroundImageFix"/><feBlend in="SourceGraphic" in2="BackgroundImageFix" result="shape"/><feGaussianBlur stdDeviation=".375" result="effect1_foregroundBlur_18_24902"/></filter></defs></svg>
